html/dist/img/svg/quailities5.svg

<svg width="164" height="144" viewBox="0 0 164 144" fill="none" xmlns="http://www.w3.org/2000/svg">
<path d="M82 62C126.183 62 162 48.5685 162 32C162 15.4315 126.183 2 82 2C37.8172 2 2 15.4315 2 32C2 48.5685 37.8172 62 82 62ZM82 62C103.102 62 122.295 58.9363 136.589 53.9303C133.26 41.5713 110.089 32 81.9997 32C53.9103 32 30.7391 41.5714 27.4102 53.9304C41.7048 58.9363 60.8985 62 82 62ZM82 62C106.501 62 128.43 57.8696 143.105 51.3643C147.207 54.5916 149.5 58.1966 149.5 62C149.5 75.8071 119.279 87 82 87M82 62C57.4988 62 35.5701 57.8696 20.8954 51.3643C16.7932 54.5916 14.5 58.1966 14.5 62C14.5 75.8071 44.7208 87 82 87M82 87C102.278 87 120.468 83.6883 132.841 78.4453C138.628 81.6121 142 85.4129 142 89.5002C142 100.546 117.376 109.5 87 109.5M82 87C64.9404 87 49.3589 84.6562 37.4753 80.7905C33.9671 83.4233 32 86.3782 32 89.5002C32 100.546 56.6243 109.5 87 109.5M87 109.5C97.0536 109.5 106.477 108.519 114.586 106.806C119.232 108.928 122 111.598 122 114.5C122 121.404 106.33 127 87 127M87 109.5C76.9464 109.5 67.5228 108.519 59.4135 106.806C54.7685 108.928 52 111.598 52 114.5C52 121.404 67.67 127 87 127M87 127C91.1203 127 95.0744 126.746 98.7458 126.279C99.2378 127.306 99.5 128.386 99.5 129.5C99.5 136.404 89.4264 142 77 142C64.5736 142 54.5 136.404 54.5 129.5C54.5 126.686 56.1736 124.089 58.998 122C65.3835 125.036 75.5496 127 87 127Z" stroke="white" stroke-width="4" stroke-linecap="round" stroke-linejoin="round"/>
</svg>

<svg width="164" height="144" viewBox="0 0 164 144" fill="none" xmlns="http://www.w3.org/2000/svg"><path d="M82 62c44.183 0 80-13.431 80-30 0-16.569-35.817-30-80-30S2 15.431 2 32c0 16.569 35.817 30 80 30zm0 0c21.102 0 40.295-3.064 54.589-8.07C133.26 41.571 110.089 32 81.999 32 53.91 32 30.74 41.571 27.41 53.93 41.705 58.936 60.9 62 82 62zm0 0c24.501 0 46.43-4.13 61.105-10.636 4.102 3.228 6.395 6.833 6.395 10.636 0 13.807-30.221 25-67.5 25m0-25c-24.501 0-46.43-4.13-61.105-10.636C16.793 54.592 14.5 58.197 14.5 62c0 13.807 30.22 25 67.5 25m0 0c20.278 0 38.468-3.312 50.841-8.555C138.628 81.612 142 85.413 142 89.5c0 11.046-24.624 20-55 20M82 87c-17.06 0-32.641-2.344-44.525-6.21C33.967 83.423 32 86.378 32 89.5c0 11.046 24.624 20 55 20m0 0c10.054 0 19.477-.981 27.586-2.694 4.646 2.122 7.414 4.792 7.414 7.694 0 6.904-15.67 12.5-35 12.5m0-17.5c-10.054 0-19.477-.981-27.587-2.694C54.77 108.928 52 111.598 52 114.5c0 6.904 15.67 12.5 35 12.5m0 0c4.12 0 8.074-.254 11.746-.721a7.405 7.405 0 01.754 3.221c0 6.904-10.074 12.5-22.5 12.5s-22.5-5.596-22.5-12.5c0-2.814 1.674-5.411 4.498-7.5 6.386 3.036 16.552 5 28.002 5z" stroke="#fff" stroke-width="4" stroke-linecap="round" stroke-linejoin="round"/></svg>
